svgs/light/messages-dollar.svg

<svg xmlns="http://www.w3.org/2000/svg" viewBox="0 0 640 512"><!--! Font Awesome Pro 6.3.0 by @fontawesome - https://fontawesome.com License - https://fontawesome.com/license (Commercial License) Copyright 2023 Fonticons, Inc. --><path d="M212.4 144.6L206.8 143C179.7 135 180.5 130.3 181.6 123.8c1.891-10.91 19.22-13.34 34.81-10.91c5.812 .9062 12.22 2.906 18.3 5.031c8.344 2.875 17.47-1.531 20.36-9.875c2.906-8.344-1.516-17.47-9.859-20.38c-8.471-2.934-15.2-4.709-21.25-5.832V72c0-8.838-7.138-16-15.98-16c-8.836 0-16.02 7.162-16.02 16v9.27c-22.56 3.756-38.4 16.92-41.89 37.11C143.3 157.7 181.5 168.9 197.8 173.7l5.781 1.688c28.67 8.188 32.33 11.81 30.77 20.81c-1.891 10.91-19.27 13.41-34.84 10.91C192.2 205.1 183.1 202.7 175.1 199.8L170.6 198.3c-8.391-2.938-17.47 1.406-20.42 9.781C147.3 216.3 151.7 225.5 159.1 228.4l4.279 1.531c8.588 3.086 18.22 6.355 27.72 8.119V248c0 8.836 7.188 16 16.02 16c8.838 0 15.98-7.164 15.98-16V238.3c22.4-3.824 38.41-16.58 41.89-36.66C272.7 161.9 234.1 151.1 212.4 144.6zM416 256V63.1C416 28.75 387.3 0 352 0H64C28.75 0 0 28.75 0 63.1v192C0 291.3 28.75 320 64 320l32 .0106V372C96 379.1 101.8 384 108 384c2.375 0 4.875-.75 7.125-2.375L224 320l128-.075C387.3 319.9 416 291.3 416 256zM215.6 288L128 337.6V288H64C46.36 288 32 273.6 32 256V64c0-17.64 14.36-32 32-32h288c17.64 0 32 14.36 32 32v192c0 17.64-14.36 32-32 32H215.6zM576 128H448v32h128c17.64 0 32 14.36 32 32v192c0 17.64-14.36 32-32 32h-64v49.57L424.4 416H320c-17.64 0-32-14.36-32-32v-32l-32-.0039v31.98c0 35.25 28.75 63.1 63.1 63.1L416 448l108.9 61.63C527.1 511.3 529.6 512 532 512C538.3 512 544 507.1 544 500v-52.03h32c35.25 0 64-28.75 64-63.1V191.1C640 156.7 611.3 128 576 128z"/></svg>

<svg xmlns="http://www.w3.org/2000/svg" viewBox="0 0 640 512"><!-- Font Awesome Pro 6.0.0-alpha2 by @fontawesome - https://fontawesome.com License - https://fontawesome.com/license (Commercial License) --><path d="M212.396 144.594L206.818 143C179.693 135.031 180.506 130.344 181.631 123.812C183.521 112.906 200.85 110.469 216.443 112.906C222.256 113.812 228.662 115.812 234.74 117.938C243.084 120.813 252.209 116.406 255.1 108.062C258.006 99.719 253.584 90.594 245.24 87.687C236.77 84.754 230.039 82.979 223.99 81.855V72C223.99 63.162 216.828 56 207.99 56C199.154 56 191.99 63.162 191.99 72V81.27C169.432 85.025 153.59 98.189 150.102 118.375C143.305 157.719 181.506 168.906 197.803 173.688L203.584 175.375C232.256 183.563 235.912 187.188 234.35 196.188C232.459 207.094 215.084 209.594 199.506 207.094C192.178 205.969 183.1 202.719 175.1 199.844L170.646 198.25C162.256 195.312 153.18 199.656 150.227 208.031C147.289 216.344 151.664 225.5 159.992 228.438L164.271 229.969C172.859 233.055 182.494 236.324 191.99 238.088V248C191.99 256.836 199.154 264 207.99 264C216.828 264 223.99 256.836 223.99 248V238.285C246.391 234.461 262.404 221.701 265.881 201.625C272.74 161.875 234.975 151.062 212.396 144.594ZM416 256V64C416 28.75 387.25 0 352 0H64C28.75 0 0 28.75 0 64V256C0 291.25 28.75 320 64 320H96V372C96 379.125 101.75 384 108 384C110.375 384 112.875 383.25 115.125 381.625L224 320H352C387.25 320 416 291.25 416 256ZM215.572 288L208.238 292.152L128 337.566V288H64C46.355 288 32 273.645 32 256V64C32 46.355 46.355 32 64 32H352C369.645 32 384 46.355 384 64V256C384 273.645 369.645 288 352 288H215.572ZM576 128H448V160H576C593.645 160 608 174.355 608 192V384C608 401.645 593.645 416 576 416H512V465.566L431.762 420.152L424.428 416H320C302.355 416 288 401.645 288 384V352H256V384C256 419.25 284.75 448 320 448H416L524.875 509.625C527.125 511.25 529.625 512 532 512C538.25 512 544 507.125 544 500V448H576C611.25 448 640 419.25 640 384V192C640 156.75 611.25 128 576 128Z"/></svg>
